!!!COM: Palestrina, Giovanni Perluigi da
!!!OPR: Missa In duplicibus minoribus (II)
!!!OMD: Credo
!!!OTL: Et iterum
**kern	**kern	**kern	**kern	**kern
*Ibass	*Itenor	*Itenor	*Icalto	*Icant
!Bassus	!Tenor 2	!Tenor 1	!Altus	!Cantus
*clefF4	*clefGv2	*clefGv2	*clefG2	*clefG2
*k[]	*k[]	*k[]	*k[]	*k[]
*E:phr	*E:phr	*E:phr	*E:phr	*E:phr
*M4/2	*M4/2	*M4/2	*M4/2	*M4/2
=91	=91	=91	=91	=91
0r	0r	1E	0r	0r
.	.	1F	.	.
=92	=92	=92	=92	=92
0r	0r	1G	1B	0r
.	.	[1A	2c	.
.	.	.	2A	.
=93	=93	=93	=93	=93
0r	0r	2A]	2c	1e
.	.	2A	2c	.
.	.	2D	2d	1f
.	.	2d	2d	.
=94	=94	=94	=94	=94
1E	0r	2c	1e	1g
.	.	2B	.	.
2F	.	2A	2c	[1a
2D	.	[2d	[2f	.
=95	=95	=95	=95	=95
2F	0r	4d]	2f]	2a]
.	.	4c	.	.
2F	.	1c	2f	2a
2G	.	.	1d	1g
2G	.	2B	.	.
=96	=96	=96	=96	=96
1A	2r	1c	2.c	1e
.	2A	.	.	.
.	.	.	8d	.
.	.	.	8e	.
1F	2c	2r	1f	1a
.	2A	[2c	.	.
=97	=97	=97	=97	=97
2C	2c	4c]	1e	1g
.	.	8B	.	.
.	.	8A	.	.
2E	2c	2G	.	.
1D	2d	1A	1r	1f#
.	2d	.	.	.
=98	=98	=98	=98	=98
2.C	4e	1c	0r	1g
.	4d	.	.	.
.	2.c	.	.	.
8BB	.	.	.	.
8AA	.	.	.	.
1GG	.	1d	.	1g
.	8B	.	.	.
.	8A	.	.	.
.	2B	.	.	.
=99	=99	=99	=99	=99
1C	2c	2e	0r	1g
.	2C	2c	.	.
1r	4D	2.A	.	1f
.	4E	.	.	.
.	4F	.	.	.
.	4G	4B	.	.
=100	=100	=100	=100	=100
0r	4A	2c	2r	1e
.	4B	.	.	.
.	2c	2C	2g	.
.	2A	4D	1f	1d
.	.	4E	.	.
.	[2A	4F	.	.
.	.	4G	.	.
=101	=101	=101	=101	=101
0r	4A]	4A	1e	1c
.	4G	4B	.	.
.	2E	1c	.	.
.	2F	.	1d	1r
.	2G	2B	.	.
=102	=102	=102	=102	=102
1r	2C	2c	1c	1.e
.	1c	1A	.	.
[1E	.	.	1r	.
.	2B	2G	.	2e
=103	=103	=103	=103	=103
2E]	1e	2B	0r	0g
2E	.	1c	.	.
1G	[1d	.	.	.
.	.	4B	.	.
.	.	4A	.	.
=104	=104	=104	=104	=104
1G	2d]	1B	1r	1g
.	1e	.	.	.
1A	.	1c	2r	2.e
.	2A	.	[2c	.
.	.	.	.	4f
=105	=105	=105	=105	=105
1G	1r	1d	2c]	2g
.	.	.	2B	2g
1F	2r	1A	2c	1a
.	2A	.	2d	.
=106	=106	=106	=106	=106
1E	2B	0r	1e	2.g
.	2c	.	.	.
.	.	.	.	8f
.	.	.	.	8e
1D	4d	.	2A	2f
.	4c	.	.	.
.	4B	.	2d	2f
.	4A	.	.	.
=107	=107	=107	=107	=107
[0E	2G#	0r	2B	1e
.	1A	.	2c	.
.	.	.	1B	2r
.	4G#	.	.	[2b
.	4F#	.	.	.
=108	=108	=108	=108	=108
1E]	1G#	0r	1e	2b]
.	.	.	.	2cc
1r	1r	.	2f	2dd
.	.	.	2g	2b
=109	=109	=109	=109	=109
0r	0r	0r	2e	2cc
.	.	.	2f	2.dd
.	.	.	2g	.
.	.	.	.	4cc
.	.	.	2d	4b
.	.	.	.	4a
=110	=110	=110	=110	=110
0r	0r	2r	2e	2g
.	.	2A	1f	1a
.	.	2B	.	.
.	.	2c	[2e	2g
=111	=111	=111	=111	=111
0r	1r	2A	2e]	1f
.	.	2B	2d	.
.	2r	1c	[1e	2.e
.	2A	.	.	.
.	.	.	.	4f
=112	=112	=112	=112	=112
1E	2B	1G	1e]	2g
.	2c	.	.	2e
2F	2A	2r	1r	1d
2G	2B	2G	.	.
=113	=113	=113	=113	=113
2E	2c	2G	2r	0r
2F	2A	2A	1d	.
1G	4G	2B	.	.
.	4A	.	.	.
.	4B	2G	2e	.
.	4c	.	.	.
=114	=114	=114	=114	=114
1D	2.d	1A	1f	2r
.	.	.	.	2.a
.	4c	.	.	.
1E	1B	1r	2e	.
.	.	.	.	8g#
.	.	.	.	8f#
.	.	.	[2e	2g#
=115	=115	=115	=115	=115
1F	1A	2r	4e]	2.a
.	.	.	8d	.
.	.	.	8c	.
.	.	2A	2d	.
.	.	.	.	4b
2E	2r	2G	2e	2cc
2D	[2A	2A	2f	2dd
=116	=116	=116	=116	=116
1E	4A]	2r	[0e	2cc
.	8G#	.	.	.
.	8F#	.	.	.
.	2G#	2E	.	2b
2r	2A	2A	.	2cc
2E	2B	4G	.	[2b
.	.	4F	.	.
=117	=117	=117	=117	=117
2C	1c	2E	0e]	4b]
.	.	.	.	4a
2AA	.	2.e	.	1a
1E	1B	.	.	.
.	.	4d	.	.
.	.	2B	.	2g#
=118	=118	=118	=118	=118
[0AA	[0A	[0c#	[0e	[0a
=119	=119	=119	=119	=119
0AA]	0A]	0c#]	0e]	0a]
*-	*-	*-	*-	*-
!!!CDT: 1525/^1526/-1594/2/2
!!!OCY: Italia
!!!AGN: Mass (Paraphrase)
!!!AST: renaissance, vocal
!!!ASW: Gregorian Mass
!!!PWK: Masses, Book Mantuan I
!!!RNB: Cadence finals: A
!!!YOR: Le Opere Complete, v. 18, p. 1
!!!YOO: Rome, Italy: Fratelli Scalera
!!!END: 1992//
!!!EED: John Miller
!!!YEC: Copyright 2000, John Miller
!!!YEN: United States of America
!!!YEM: Rights to all derivative electronic formats reserved.
!!!YEM: Refer to licensing agreement for further details.
!!!YEM: This file must be accompanied by the licensing agreement.
!!!YEM: A copy of the licensing agreement may be found at http://www.music-cog.ohio-state.edu/HumdrumDatabases/Palestrina/license.txt
!!!EMD: converted to Humdrum by Bret Aarden
